public/Carlogo/Volvo.svg

<svg xmlns="http://www.w3.org/2000/svg" xml:space="preserve" width="800" height="110.066" viewBox="0 0 800 110.066"><path d="M0 4.723V19.33h23.959l46.887 87.931h57.697l46.887-88.077 23.955-.151.052-14.31h-71.676v14.36h19.088L113.74 81.595 77.933 19.301l26.117-.117-.046-14.461zm462.405 0V19.33h23.952l46.888 87.931h57.699l46.887-88.077 23.958-.151.043-14.31h-71.663v14.36h19.08l-33.108 62.512-35.811-62.294 26.125-.117-.049-14.461zm-117.89 0V19.33h23.955l.04 71.788h-25.255v16.001l25.272.143h119.612v-47.73h-15.581c-.854 25.271-22.776 31.62-32.01 31.62-8.461 0-24.855-.033-24.855-.033V19.301l23.595-.118-.032-14.461zM262.808 94.13c-14.355 0-25.986-17.195-25.986-38.417 0-21.227 11.631-38.435 25.986-38.435 14.351 0 25.986 17.208 25.986 38.435 0 21.222-11.635 38.417-25.986 38.417m1.056-92.353c-40.72 0-73.729 24.247-73.729 54.145 0 29.9 33.008 54.144 73.729 54.144 40.717 0 73.731-24.244 73.731-54.144 0-29.898-33.014-54.145-73.731-54.145m461.351 92.08c-14.35 0-25.98-17.48-25.98-39.053 0-21.565 11.631-39.049 25.98-39.049 14.352 0 25.98 17.484 25.98 39.049.001 21.572-11.628 39.053-25.98 39.053M726.276 0c-40.729 0-73.728 24.642-73.728 55.028s32.998 55.022 73.728 55.022C766.99 110.05 800 85.413 800 55.028 800 24.642 766.99 0 726.276 0" style="fill:#0d3896;fill-rule:evenodd"/></svg>

<?xml version="1.0" encoding="UTF-8" standalone="no"?>
<!-- Created with Inkscape (http://www.inkscape.org/) -->
<svg
   xmlns:svg="http://www.w3.org/2000/svg"
   xmlns="http://www.w3.org/2000/svg"
   version="1.0"
   width="800"
   height="110.066"
   viewBox="0 0 800 110.066"
   id="svg2"
   xml:space="preserve"><defs
   id="defs23" />
<g
   style="display:none"
   id="Grade">
</g>
<g
   id="Camada_1">
</g>
<g
   id="Área_de_trabalho">
</g>
<g
   id="Linhas-guia">
</g>
<g
   id="Page_1">
	<g
   id="Camada_1_1_">
		<g
   id="g10">
			<polygon
   points="0,4.723 0,19.33 23.959,19.33 70.846,107.261 128.543,107.261 175.43,19.184 199.385,19.033 199.437,4.723 127.761,4.723 127.761,19.083 146.849,19.083 113.74,81.595 77.933,19.301 104.05,19.184 104.004,4.723 0,4.723 "
   style="fill:#0d3896;fill-rule:evenodd"
   id="polygon12" />
			<polygon
   points="462.405,4.723 462.405,19.33 486.357,19.33 533.245,107.261 590.944,107.261 637.831,19.184 661.789,19.033 661.832,4.723 590.169,4.723 590.169,19.083 609.249,19.083 576.141,81.595 540.33,19.301 566.455,19.184 566.406,4.723 462.405,4.723 "
   style="fill:#0d3896;fill-rule:evenodd"
   id="polygon14" />
			<path
   d="M 344.515,4.723 L 344.515,19.33 L 368.47,19.33 L 368.51,91.118 L 343.255,91.118 L 343.255,107.119 L 368.527,107.262 L 488.139,107.262 L 488.139,59.532 L 472.558,59.532 C 471.704,84.803 449.782,91.152 440.548,91.152 C 432.087,91.152 415.693,91.119 415.693,91.119 L 415.693,19.301 L 439.288,19.183 L 439.256,4.722 L 344.515,4.722 L 344.515,4.723 z "
   style="fill:#0d3896;fill-rule:evenodd"
   id="path16" />
			<path
   d="M 262.808,94.13 C 248.453,94.13 236.822,76.935 236.822,55.713 C 236.822,34.486 248.453,17.278 262.808,17.278 C 277.159,17.278 288.794,34.486 288.794,55.713 C 288.794,76.935 277.159,94.13 262.808,94.13 L 262.808,94.13 z M 263.864,1.777 C 223.144,1.777 190.135,26.024 190.135,55.922 C 190.135,85.822 223.143,110.066 263.864,110.066 C 304.581,110.066 337.595,85.822 337.595,55.922 C 337.595,26.024 304.581,1.777 263.864,1.777 L 263.864,1.777 z "
   style="fill:#0d3896;fill-rule:evenodd"
   id="path18" />
			<path
   d="M 725.215,93.857 C 710.865,93.857 699.235,76.377 699.235,54.804 C 699.235,33.239 710.866,15.755 725.215,15.755 C 739.567,15.755 751.195,33.239 751.195,54.804 C 751.196,76.376 739.567,93.857 725.215,93.857 L 725.215,93.857 z M 726.276,0 C 685.547,0 652.548,24.642 652.548,55.028 C 652.548,85.413 685.546,110.05 726.276,110.05 C 766.99,110.05 800,85.413 800,55.028 C 800,24.642 766.99,0 726.276,0 L 726.276,0 z "
   style="fill:#0d3896;fill-rule:evenodd"
   id="path20" />
		</g>
	</g>
</g>
</svg>
